X:63
T:Ye Banks and Breas of Bonny Done.2voices RH.063
R:Air
S:Rev.R.Harrison’s MS,c1815,Cumbria
N:Usable as a waltz. PJH.
O:England
A:Temple Sowerby,Cumbria
Z:vmp.Simon Wilson. Review PJH, 2008.
M:6/8
L:1/8
Q:3/8=100
K:D
[V:1] A2|d>ed ede|f>gf ede|f>ed dcB|ABc e2A|
[V:2] A2|d3 c3|d>ed cBc|d>cB BAG|FDF c2A|
%
[V:1] d>ed ede|f>gf ede|f>ed dcB|ABc d2:|
[V:2] d3 c3|d>ed cBc|d>cB AFG|AGF F2:|
%
[V:1]|:f|a2b afd|a2b afd|afd afd|b>ag/f/ e2A|
[V:2]|:f|f2g fdB|f2g fdB|fdB fdB|g>fe/d/ c2A|
%
[V:1] d>ed ede|f>gf ede|f>ed dcB|ABc d2:|
[V:2] d3 c3|d>ed cBc|d>cB AFG|AGF F2:|

